X:8
T:Leikkivä makkara (2. versio)
C:Tuuli Kaihola
K:C
M:2/4
L:1/8
!1!CE D2 | DF E2 | CD ED | C4    |
   CE D2 | DF E2 | CD EF | FE D2 | C2 C2 |]
%%text 4.11.2013

